apps/64/system-software-update.svg

<?xml version="1.0" encoding="UTF-8" standalone="no"?>
<svg
   xmlns:dc="http://purl.org/dc/elements/1.1/"
   xmlns:cc="http://creativecommons.org/ns#"
   xmlns:rdf="http://www.w3.org/1999/02/22-rdf-syntax-ns#"
   xmlns:svg="http://www.w3.org/2000/svg"
   xmlns="http://www.w3.org/2000/svg"
   xmlns:xlink="http://www.w3.org/1999/xlink"
   version="1.1"
   width="64"
   height="64"
   id="svg4330">
  <defs
     id="defs4332">
    <linearGradient
       x1="167.98311"
       y1="8.50811"
       x2="167.98311"
       y2="54.780239"
       id="linearGradient3045-0"
       xlink:href="#linearGradient5803-2"
       gradientUnits="userSpaceOnUse"
       gradientTransform="translate(-132.51969,1.9e-6)" />
    <linearGradient
       id="linearGradient5803-2">
      <stop
         id="stop5805-1"
         style="stop-color:#fff5ef;stop-opacity:1"
         offset="0" />
      <stop
         id="stop5807-6"
         style="stop-color:#fef8dd;stop-opacity:1"
         offset="1" />
    </linearGradient>
    <linearGradient
       x1="23.99999"
       y1="4.999989"
       x2="23.99999"
       y2="43"
       id="linearGradient3052"
       xlink:href="#linearGradient3924-2-2-5-8"
       gradientUnits="userSpaceOnUse"
       gradientTransform="matrix(1.4324324,0,0,1.4362832,-2.378381,-2.4707781)" />
    <linearGradient
       id="linearGradient3924-2-2-5-8">
      <stop
         id="stop3926-9-4-9-6"
         style="stop-color:#ffffff;stop-opacity:1"
         offset="0" />
      <stop
         id="stop3928-9-8-6-5"
         style="stop-color:#ffffff;stop-opacity:0.23529412"
         offset="0.06316455" />
      <stop
         id="stop3930-3-5-1-7"
         style="stop-color:#ffffff;stop-opacity:0.15686275"
         offset="0.95056331" />
      <stop
         id="stop3932-8-0-4-8"
         style="stop-color:#ffffff;stop-opacity:0.39215687"
         offset="1" />
    </linearGradient>
    <radialGradient
       cx="6.7304144"
       cy="9.9571075"
       r="12.671875"
       fx="6.2001843"
       fy="9.9571075"
       id="radialGradient3055"
       xlink:href="#linearGradient2867-449-88-871-390-598-476-591-434-148-57-177-8-3-3-6-4-8-8-8"
       gradientUnits="userSpaceOnUse"
       gradientTransform="matrix(0,13.393984,-16.443533,0,196.90205,-114.89368)" />
    <linearGradient
       id="linearGradient2867-449-88-871-390-598-476-591-434-148-57-177-8-3-3-6-4-8-8-8">
      <stop
         id="stop3750-1-0-7-6-6-1-3-9"
         style="stop-color:#ffcd7d;stop-opacity:1"
         offset="0" />
      <stop
         id="stop3752-3-7-4-0-32-8-923-0"
         style="stop-color:#fc8f36;stop-opacity:1"
         offset="0.26238" />
      <stop
         id="stop3754-1-8-5-2-7-6-7-1"
         style="stop-color:#e23a0e;stop-opacity:1"
         offset="0.704952" />
      <stop
         id="stop3756-1-6-2-6-6-1-96-6"
         style="stop-color:#ac441f;stop-opacity:1"
         offset="1" />
    </linearGradient>
    <radialGradient
       cx="4.9929786"
       cy="43.5"
       r="2.5"
       fx="4.9929786"
       fy="43.5"
       id="radialGradient3337-2-2"
       xlink:href="#linearGradient3688-166-749-4-0-3-8"
       gradientUnits="userSpaceOnUse"
       gradientTransform="matrix(2.003784,0,0,1.4,27.98813,-17.4)" />
    <linearGradient
       id="linearGradient3688-166-749-4-0-3-8">
      <stop
         id="stop2883-4-0-1-8"
         style="stop-color:#181818;stop-opacity:1"
         offset="0" />
      <stop
         id="stop2885-9-2-9-6"
         style="stop-color:#181818;stop-opacity:0"
         offset="1" />
    </linearGradient>
    <radialGradient
       cx="4.9929786"
       cy="43.5"
       r="2.5"
       fx="4.9929786"
       fy="43.5"
       id="radialGradient3339-1-4"
       xlink:href="#linearGradient3688-464-309-9-2-4-2"
       gradientUnits="userSpaceOnUse"
       gradientTransform="matrix(2.003784,0,0,1.4,-20.01187,-104.4)" />
    <linearGradient
       id="linearGradient3688-464-309-9-2-4-2">
      <stop
         id="stop2889-7-9-6-9"
         style="stop-color:#181818;stop-opacity:1"
         offset="0" />
      <stop
         id="stop2891-6-6-1-7"
         style="stop-color:#181818;stop-opacity:0"
         offset="1" />
    </linearGradient>
    <linearGradient
       id="linearGradient3702-501-757-8-4-1-1">
      <stop
         id="stop2895-8-9-9-1"
         style="stop-color:#181818;stop-opacity:0"
         offset="0" />
      <stop
         id="stop2897-7-8-7-7"
         style="stop-color:#181818;stop-opacity:1"
         offset="0.5" />
      <stop
         id="stop2899-4-5-1-5"
         style="stop-color:#181818;stop-opacity:0"
         offset="1" />
    </linearGradient>
    <linearGradient
       x1="25.058096"
       y1="47.027729"
       x2="25.058096"
       y2="39.999443"
       id="linearGradient4328"
       xlink:href="#linearGradient3702-501-757-8-4-1-1"
       gradientUnits="userSpaceOnUse" />
  </defs>
  <metadata
     id="metadata4335">
    <rdf:RDF>
      <cc:Work
         rdf:about="">
        <dc:format>image/svg+xml</dc:format>
        <dc:type
           rdf:resource="http://purl.org/dc/dcmitype/StillImage" />
        <dc:title />
      </cc:Work>
    </rdf:RDF>
  </metadata>
  <g
     id="layer1">
    <g
       transform="matrix(1.5789502,0,0,0.7142857,-5.894751,27.928572)"
       id="g3712-8-2-4-4"
       style="opacity:0.6">
      <rect
         width="5"
         height="7"
         x="38"
         y="40"
         id="rect2801-5-5-7-9"
         style="fill:url(#radialGradient3337-2-2);fill-opacity:1;stroke:none" />
      <rect
         width="5"
         height="7"
         x="-10"
         y="-47"
         transform="scale(-1,-1)"
         id="rect3696-3-0-3-7"
         style="fill:url(#radialGradient3339-1-4);fill-opacity:1;stroke:none" />
      <rect
         width="28"
         height="7.0000005"
         x="10"
         y="40"
         id="rect3700-5-6-8-4"
         style="fill:url(#linearGradient4328);fill-opacity:1;stroke:none" />
    </g>
    <rect
       width="55"
       height="55"
       rx="3"
       ry="3"
       x="4.4999986"
       y="4.5000019"
       id="rect5505-21-3-8-5-2"
       style="color:#000000;fill:url(#radialGradient3055);fill-opacity:1;fill-rule:nonzero;stroke:none;stroke-width:0.99999994;marker:none;visibility:visible;display:inline;overflow:visible;enable-background:accumulate" />
    <rect
       width="53"
       height="53.142479"
       rx="2"
       ry="2"
       x="5.4999986"
       y="5.4287739"
       id="rect6741-5-0-2-3"
       style="opacity:0.5;fill:none;stroke:url(#linearGradient3052);stroke-width:1;stroke-linecap:round;stroke-linejoin:round;stroke-miterlimit:4;stroke-opacity:1;stroke-dasharray:none;stroke-dashoffset:0" />
    <rect
       width="55"
       height="55"
       rx="3"
       ry="3"
       x="4.4999986"
       y="4.5000019"
       id="rect5505-21-3-8-9-1-1"
       style="opacity:0.4;color:#000000;fill:none;stroke:#640000;stroke-width:1;stroke-linecap:round;stroke-linejoin:round;stroke-miterlimit:4;stroke-opacity:1;stroke-dasharray:none;stroke-dashoffset:0;marker:none;visibility:visible;display:inline;overflow:visible;enable-background:accumulate" />
    <path
       d="m 32,14.03125 c -8.62952,0 -15.90108,5.784032 -18.1875,13.6875 a 0.95694401,0.95694401 0 0 0 0.90625,1.25 l 4.21875,0 a 0.95694401,0.95694401 0 0 0 0.90625,-0.625 c 1.879412,-4.893391 6.593494,-8.375 12.15625,-8.375 3.248719,0 6.156986,1.244945 8.4375,3.21875 l -4.125,4.125 A 0.95694401,0.95694401 0 0 0 37,28.96875 l 8.0625,0 4.21875,0 0.71875,0 A 0.95694401,0.95694401 0 0 0 50.96875,28 l 0,-13 A 0.95694401,0.95694401 0 0 0 49.3125,14.3125 l -4.65625,4.65625 C 41.299408,15.934387 36.8778,14.03125 32,14.03125 z m -18,23 A 0.95694401,0.95694401 0 0 0 13.03125,38 l 0,13 a 0.95694401,0.95694401 0 0 0 1.65625,0.6875 l 4.65625,-4.65625 c 3.356842,3.034363 7.77845,4.9375 12.65625,4.9375 8.62952,0 15.90108,-5.784032 18.1875,-13.6875 a 0.95694401,0.95694401 0 0 0 -0.90625,-1.25 l -4.21875,0 a 0.95694401,0.95694401 0 0 0 -0.90625,0.625 c -1.879412,4.893391 -6.593494,8.375 -12.15625,8.375 -3.248719,0 -6.156986,-1.244945 -8.4375,-3.21875 l 4.125,-4.125 A 0.95694401,0.95694401 0 0 0 27,37.03125 l -13,0 z"
       id="path4244"
       style="opacity:0.15;color:#000000;fill:#ae2109;fill-opacity:1;fill-rule:nonzero;stroke:none;stroke-width:1.00000012px;marker:none;visibility:visible;display:inline;overflow:visible;enable-background:accumulate" />
    <path
       d="m 32,15 c -8.201968,0 -15.110789,5.497368 -17.28125,13 l 4.21875,0 C 20.955104,22.746801 26.036462,19 32,19 c 3.862133,0 7.34544,1.590602 9.875,4.125 L 37,28 45.0625,28 49.28125,28 50,28 50,15 44.71875,20.28125 C 41.465141,17.022881 36.968537,15 32,15 z m -18,23 0,13 5.28125,-5.28125 C 22.534859,48.977119 27.031463,51 32,51 40.201968,51 47.110789,45.502632 49.28125,38 L 45.0625,38 C 43.044896,43.253199 37.963538,47 32,47 28.137867,47 24.65456,45.409398 22.125,42.875 L 27,38 14,38 z"
       id="path3178-4"
       style="opacity:0.3;color:#000000;fill:#ae2109;fill-opacity:1;fill-rule:nonzero;stroke:none;stroke-width:1.00000012px;marker:none;visibility:visible;display:inline;overflow:visible;enable-background:accumulate" />
    <path
       d="m 32,14 c -8.201968,0 -15.110789,5.497368 -17.28125,13 l 4.21875,0 C 20.955104,21.746801 26.036462,18 32,18 c 3.862133,0 7.34544,1.590602 9.875,4.125 L 37,27 45.0625,27 49.28125,27 50,27 50,14 44.71875,19.28125 C 41.465141,16.022881 36.968537,14 32,14 z m -18,23 0,13 5.28125,-5.28125 C 22.534859,47.977119 27.031463,50 32,50 40.201968,50 47.110789,44.502632 49.28125,37 L 45.0625,37 C 43.044896,42.253199 37.963538,46 32,46 28.137867,46 24.65456,44.409398 22.125,41.875 L 27,37 14,37 z"
       id="path3178"
       style="color:#000000;fill:url(#linearGradient3045-0);fill-opacity:1;fill-rule:nonzero;stroke:none;stroke-width:1.00000012px;marker:none;visibility:visible;display:inline;overflow:visible;enable-background:accumulate" />
  </g>
</svg>

<svg xmlns="http://www.w3.org/2000/svg" xmlns:xlink="http://www.w3.org/1999/xlink" viewBox="0 0 64 64"><defs><linearGradient x1="167.983" y1="8.508" x2="167.983" y2="54.78" id="l" xlink:href="#a" gradientUnits="userSpaceOnUse" gradientTransform="translate(-132.52)"/><linearGradient id="a"><stop offset="0" stop-color="#fff5ef"/><stop offset="1" stop-color="#fef8dd"/></linearGradient><linearGradient x1="24" y1="5" x2="24" y2="43" id="k" xlink:href="#b" gradientUnits="userSpaceOnUse" gradientTransform="matrix(1.43243 0 0 1.43628 -2.378 -2.47)"/><linearGradient id="b"><stop offset="0" stop-color="#fff"/><stop offset=".063" stop-color="#fff" stop-opacity=".235"/><stop offset=".951" stop-color="#fff" stop-opacity=".157"/><stop offset="1" stop-color="#fff" stop-opacity=".392"/></linearGradient><radialGradient cx="6.73" cy="9.957" r="12.672" fx="6.2" fy="9.957" id="j" xlink:href="#c" gradientUnits="userSpaceOnUse" gradientTransform="matrix(0 13.39398 -16.44353 0 196.902 -114.894)"/><linearGradient id="c"><stop offset="0" stop-color="#ffcd7d"/><stop offset=".262" stop-color="#fc8f36"/><stop offset=".705" stop-color="#e23a0e"/><stop offset="1" stop-color="#ac441f"/></linearGradient><radialGradient cx="4.993" cy="43.5" r="2.5" fx="4.993" fy="43.5" id="g" xlink:href="#d" gradientUnits="userSpaceOnUse" gradientTransform="matrix(2.00378 0 0 1.4 27.988 -17.4)"/><linearGradient id="d"><stop offset="0" stop-color="#181818"/><stop offset="1" stop-color="#181818" stop-opacity="0"/></linearGradient><radialGradient cx="4.993" cy="43.5" r="2.5" fx="4.993" fy="43.5" id="h" xlink:href="#e" gradientUnits="userSpaceOnUse" gradientTransform="matrix(2.00378 0 0 1.4 -20.012 -104.4)"/><linearGradient id="e"><stop offset="0" stop-color="#181818"/><stop offset="1" stop-color="#181818" stop-opacity="0"/></linearGradient><linearGradient id="f"><stop offset="0" stop-color="#181818" stop-opacity="0"/><stop offset=".5" stop-color="#181818"/><stop offset="1" stop-color="#181818" stop-opacity="0"/></linearGradient><linearGradient x1="25.058" y1="47.028" x2="25.058" y2="39.999" id="i" xlink:href="#f" gradientUnits="userSpaceOnUse"/></defs><g opacity=".6"><path fill="url(#g)" d="M38 40h5v7h-5z" transform="matrix(1.57895 0 0 .7143 -5.895 27.93)"/><path transform="matrix(-1.57895 0 0 -.7143 -5.895 27.93)" fill="url(#h)" d="M-10-47h5v7h-5z"/><path fill="url(#i)" d="M10 40h28v7H10z" transform="matrix(1.57895 0 0 .7143 -5.895 27.93)"/></g><rect width="55" height="55" rx="3" ry="3" x="4.5" y="4.5" color="#000" fill="url(#j)" overflow="visible"/><rect width="53" height="53.142" rx="2" ry="2" x="5.5" y="5.429" opacity=".5" fill="none" stroke="url(#k)" stroke-linecap="round" stroke-linejoin="round"/><rect width="55" height="55" rx="3" ry="3" x="4.5" y="4.5" opacity=".4" color="#000" fill="none" stroke="#640000" stroke-linecap="round" stroke-linejoin="round" overflow="visible"/><path d="M32 14.03c-8.63 0-15.9 5.785-18.188 13.69a.957.957 0 0 0 .907 1.25h4.216a.957.957 0 0 0 .907-.626C21.723 23.45 26.437 19.97 32 19.97c3.25 0 6.157 1.244 8.438 3.218l-4.126 4.125A.957.957 0 0 0 37 28.968h13a.957.957 0 0 0 .97-.97V15a.957.957 0 0 0-1.657-.688l-4.657 4.657C41.3 15.932 36.878 14.03 32 14.03zm-18 23a.957.957 0 0 0-.97.97v13a.957.957 0 0 0 1.658.688l4.656-4.657C22.7 50.068 27.122 51.97 32 51.97c8.63 0 15.9-5.785 18.188-13.69a.957.957 0 0 0-.907-1.25h-4.217a.957.957 0 0 0-.906.626C42.277 42.55 37.563 46.03 32 46.03c-3.25 0-6.157-1.244-8.438-3.218l4.125-4.124A.957.957 0 0 0 27 37.03H14z" opacity=".15" color="#000" fill="#ae2109" overflow="visible"/><path d="M32 15c-8.202 0-15.11 5.497-17.28 13h4.217c2.018-5.253 7.1-9 13.063-9 3.862 0 7.345 1.59 9.875 4.125L37 28h13V15l-5.28 5.28A17.923 17.923 0 0 0 32 15zM14 38v13l5.28-5.28A17.923 17.923 0 0 0 32 51c8.202 0 15.11-5.497 17.28-13h-4.218c-2.017 5.253-7.098 9-13.062 9-3.862 0-7.345-1.59-9.875-4.125L27 38H14z" opacity=".3" color="#000" fill="#ae2109" overflow="visible"/><path d="M32 14c-8.202 0-15.11 5.497-17.28 13h4.217c2.018-5.253 7.1-9 13.063-9 3.862 0 7.345 1.59 9.875 4.125L37 27h13V14l-5.28 5.28A17.923 17.923 0 0 0 32 14zM14 37v13l5.28-5.28A17.923 17.923 0 0 0 32 50c8.202 0 15.11-5.497 17.28-13h-4.218c-2.017 5.253-7.098 9-13.062 9-3.862 0-7.345-1.59-9.875-4.125L27 37H14z" color="#000" fill="url(#l)" overflow="visible"/></svg>
